X:1
T:Bourrée in E minor (Lute Suite)
C:Johann Sebastian Bach
M:4/4
L:1/8
Q:1/4=120
K:Em
|: E2|EFGA BAGF|EGFA GFED|EFGE D2EF|GFED E4|
EFGA BAGF|EDCE D2EF|GFED EDCE|E6 :|
|: B2|BABc BAGF|EDEG FGFE|D2FA GFED|EFGE A4|
GFED EFGE|ABAG FEDF|GFED EDCE|E6 :|]
